X:1
T:Großer Gott, wir loben dich Grand Dieu, nous te bénisons Holy God, we praise Thy Name
T:Katholisches Gesangbuch (Wien 1776)
T:Ig­naz Franz (Deutsch) Henri-Louis Empaytaz (Français) Clar­ence A. Wal­worth (English)
%%score { ( 1 2 ) | ( 3 4 ) }
L:1/8
M:3/4
K:G
V:1 treble nm="Organ"
V:2 treble 
V:3 bass 
V:4 bass 
V:1
 G4 G2 | (G2 F2) G2 | (A2 B2) A2 | G6 | B4 B2 | (B2 A2) B2 | (d2 c2) B2 | B2 A2 z2 | G4 G2 | %9
w: Gros- ser|Gott _ wir|lo _ ben|dich,|Herr wir|prei _ sen|dei _ ne|Stär- ke.|Vor dir|
w: Grand Dieu,|nous _ Te|bé _ nis-|sons,|Nous cé-|lé _ brons|tes _ lou-|an- ges!|E- ter-|
w: Ho- ly|God, _ we|praise _ Thy|Name;|Lord of|all, _ we|bow be- fore-|Thee! _|All on|
 (G2 F2) G2 | (A2 B2) A2 | G6 | B4 B2 | (B2 A2) B2 | (d2 c2) B2 | B2 A2 z2 | A4 B2 | (c2 B2) A2 | %18
w: nei- gt die|Er _ de|sich|und be-|wun _ dert|dei _ ne|Wer- ke.|Wie du|war- st vor|
w: nel, _ nous|t'e _ xal-|tons,|De con-|cert _ a-|vec _ les|an- ges,|Et pros-|ter _ nés|
w: Earth _ Thy|scep _ ter|claim,|All in|Hea- ven a-|bove _ a-|dore Thee;|In- fi-|nite _ Thy|
 B4 c2 | d6 | e4 e2 | (d2 c2) B2 | (c2 B2) A2 | B4 z2 | A4 B2 | (c2 B2) A2 | B4 c2 | d6 | e4 e2 | %29
w: al- ler|Zeit,|so bleibst|du _ in|E _ wig-|keit.|Wie du|war- st vor|al- ler|Zeit,|so bleibst|
w: de- vant|Toi,|Nous t'a-|do _ rons,|ô _ grand|Roi!|Et pros-|ter _ nés|de- vant|Toi,|Nous t'a-|
w: vast do-|main,|E- ver-|las _ ting|is _ Thy|reign.|In- fi-|nite _ Thy|vast do-|main,|E- ver|
 (d2 c2) B2 | (c2 B2) A2 | G6 |] %32
w: du _ in|E _ wig-|keit.|
w: do _ rons,|ô _ grand|Roi.|
w: las _ ting|is _ Thy|reign.|
V:2
 G4 D2 | D4 D2 | (E2 D2) D2 | B,6 | G4 G2 | (G2 F2) G2 | A4 G2 | G2 F2 z2 | G4 D2 | D4 D2 | %10
 (E2 D2) D2 | B,6 | G4 G2 | (G2 F2) G2 | A4 G2 | G2 F2 z2 | F4 G2 | (A2 G2) F2 | G4 G2 | G6 | %20
 G4 G2 | (A2 F2) G2 | G4 F2 | G4 z2 | F4 G2 | (A2 G2) F2 | G4 G2 | G6 | G4 G2 | (A2 F2) G2 | %30
 G4 F2 | G6 |] %32
V:3
 B,4 B,2 | (B,2 A,2) G,2 | G,4 F,2 | G,6 | D4 D2 | D4 D2 | D4 D2 | D2 D2 z2 | B,4 B,2 | %9
 (B,2 A,2) G,2 | G,4 F,2 | G,6 | D4 D2 | D4 D2 | D4 D2 | D2 D2 z2 | D4 D2 | (E2 D2) D2 | D4 E2 | %19
 D6 | C4 C2 | A,4 G,2 | (E2 D2) D2 | D4 z2 | D4 D2 | (E2 D2) D2 | D4 E2 | D6 | C4 C2 | A,4 G,2 | %30
 (E2 D2) D2 | B,6 |] %32
V:4
 [G,,G,]4 [G,,G,]2 | (G,2 D,2) B,,2 | (C,2 D,2) D,2 | G,,6 | G,4 G,2 | (G,2 D,2) G,2 | F,4 (G,B,) | %7
 D2 D,2 z2 | [G,,G,]4 [G,,G,]2 | (G,2 D,2) B,,2 | (C,2 D,2) D,2 | G,,6 | G,4 G,2 | (G,2 D,2) G,2 | %14
 F,4 (G,B,) | D2 D,2 z2 | D,4 B,,2 | (A,,2 D,2) D,2 | G,4 E,2 | B,,6 | C,4 E,2 | (F,2 D,2) E,2 | %22
 (C,2 D,2) D,2 | G,4 z2 | D,4 B,,2 | (A,,2 D,2) D,2 | G,4 E,2 | B,,6 | C,4 E,2 | (F,2 D,2) E,2 | %30
 (C,2 D,2) D,2 | G,6 |] %32

